X:1
T:[ID 2-99]
T:[ID 2-99]
T:Bezeichnung standardisiert: Menuett Men. Secondo
T:Urheber unbekannt Datum in der hier transkribierten schriftlichen Quelle: 1767
C:Urheber unbekannt
C:Datum in der hier transkribierten schriftlichen Quelle: 1767
L:1/8
M:3/4
K:C
V:1 treble 
V:1
 e6 | c6 | E6 | C6 | E2 C2 cB | ecef g2 | e2 e2 gf | c6 :: B2 c2 d2 | (3cde (3def e2 | B2 c2 d2 | %11
 c6 | E2 C2 ED | E2 C2 E2 | CDEFGF | E6 :|[M:3/4]"^Trio" !fermata!efedcd | ef e2 e2 | efedcd | %19
 e3 c e2 | d3 B d2 | c2 z2 e2 | cdef g2 | e6 :: B2 c2 d2 | (3cde (3def e2 | B2 c2 d2 | c4 ce | %28
 e3 B d2 | c2 z2 E2 | FE D2 G2 | E6 :| %32

